X:1
T:Respice in me
T:Derrick Gerarde edit BMarble
T:Respice in me
T:Copyright © 2015 by CPDL.  This edition can be fully distributed, duplicated, performed, and recorded 
T:Copyright © 2015 by CPDL.  This edition can be fully distributed, duplicated, performed, and recorded 
T:Copyright © 2015 by CPDL.  This edition can be fully distributed, duplicated, performed, and recorded 
T:Copyright © 2015 by CPDL.  This edition can be fully distributed, duplicated, performed, and recorded 
T:Copyright © 2015 by CPDL.  This edition can be fully distributed, duplicated, performed, and recorded 
T:Copyright © 2015 by CPDL.  This edition can be fully distributed, duplicated, performed, and recorded 
T:Copyright © 2015 by CPDL.  This edition can be fully distributed, duplicated, performed, and recorded 
T:Copyright © 2015 by CPDL.  This edition can be fully distributed, duplicated, performed, and recorded 
T:Copyright © 2015 by CPDL.  This edition can be fully distributed, duplicated, performed, and recorded 
C:Derrick Gerarde
C:edit BMarble
Z:Copyright © 2015 by CPDL.  This edition can be fully distributed, duplicated, performed, and recorded
%%score [ 1 2 3 4 ]
L:1/8
Q:1/2=96
M:4/2
K:Ab
V:1 treble nm="Soprano" snm="S."
V:2 treble nm="Alto" snm="A."
V:3 treble-8 transpose=-12 nm="Tenor" snm="T."
V:4 bass nm="Bass" snm="B."
V:1
"^Introit, Pentecost III:  Ps 25: 16-17:Look upon me, have pity on me,for I am alone and afflicted.Relieve the troubles of my heart;bring me out of my distress." E12 E4 | %1
w: Re- spi-|
 A12 A4 | F12 F4 | B12 A4 | G4 F4 (E4 A4-) | (A4 G4) A8- | A16- | A8 z8 | z16 | z16 | z8 E8- | %11
w: ce in|me et|mi- se-|re- re me- *|* * i,|_||||re-|
 E4 E4 A8- | A4 A4 F8- | F4 F4 B8- | B4 B4 c4 B4 | B2 A2 A8 G4 | A16 | z16 | z16 | z4 A8 A4 | %20
w: * spi- ce|_ in me|_ et mi-|* se- re- re|me- * * *|i;|||qui- a|
 G8 B8 | c4 (A6 B2 c2 A2 | B4) G4 F4 B4 | G4 A6 G2 F2 E2 | F2 B,2 B6 A2 A4- | A4 G4 A4 F4- | %26
w: u- ni-|cus, qui- * * *|* a u- ni-|cus, u- * * *||* ni- cus, u-|
 F2 G2 A2 B2 c4 A4- | A4 G4 A8 | z4 A8 A4 | G8 B8- | B8 A8 | z4 A4 d8- | d4 c4 B4 A4- | %33
w: |* ni- cus,|qui- a|u- ni-|* cus|et pau-|* per sum e-|
 (A4 G4) (A8 | B8 A8) | z8 z4 A4 | d12 c4 | B4 (A8 G4) | A8 z4 E4 | A12 G4 | F4 F4 E6 F2 | %41
w: * * go,|_ _|et|pau- per|sum e- *|go, et|pau- per|sum e- go, _|
 G2 A2 B6 A2 A4- | (A4 G4 A8) | G4 B8 B4 | B8 G4 A4 | B4 c8 B2 A2 | c4 B6 A2 A4- | %47
w: _ _ _ _ e-||go. Tri- bu-|la- ti- o-|nes cor- * *||
 A4 G2 F2 G4 E2 F2 | G2 E2 A8 G4 | F4 D4 E4 E4 | E4 E8 A4- | A2 G2 F2 E2 F4 F4 | E16- | E8 z8 | %54
w: * * * dis me- *||* i mul- ti-|pli- ca- *|* * * * * tae|sunt:|_|
 z4 A8 A4 | G4 E4 G6 G2 | F8 z4 d4- | d4 d4 c4 A4 | c6 c2 B4 B4- | B4 B4 A4 F4 | A6 A2 G4 B4- | %61
w: de ne-|ces- si- ta- ti-|bus, de|_ ne- ces- si-|ta- ti- bus, de|_ ne- ces- si-|ta- ti- bus, de|
 B4 B4 A4 F4 | G4 A4 F4 F4 | G4 E2 F2 G2 A2 B4- | B2 A2 A8 G4 | A16 | z4 E4 A8- | A4 G4 (c6 B2) | %68
w: _ ne- ces- si-|ta- ti- bus me-|is, me- * * * *||is|e- ru-|* e me _|
 A4 B4 (G4 F2 E2 | F8) G4 (E2 F2) | (G2 A2) (B6 A2) A4- | A4 G4 A8- | A16- | A16- | A16- | A16- | %76
w: Do- mi- ne, _ _|_ e- ru- *|e _ me _ Do-|* mi- ne.|_||||
 A16 |] %77
w: |
V:2
 z8 A,8- | A,4 A,4 D8- | D4 D4 B,8- | B,4 B,4 E8- | E4 D4 C4 (B,2 A,2) | B,8 C8- | C8 z4 A,4- | %7
w: Re-|* spi- ce|_ in me|_ et mi-|* se- re- re *|me- i,|_ re-|
 A,4 A,4 D8- | D4 D4 B,8- | B,4 B,4 E4 D4 | C4 C4 B,8 | C4 C8 C4 | F12 F4 | =D12 F4 | G4 F4 E4 E4 | %15
w: * spi- ce|_ in me|_ et mi- se-|re- re me-|i, re- spi-|ce in|me et|mi- se- re- re|
 (E6 _D2) E4 E4- | E4 E4 A8- | A4 A4 D8 | D4 _G4 F6 E2 | E8 =D8 | E8 _D4 B,4 | (E12 D2 C2) | %22
w: me- * i, re-|* spi- ce|_ in me|et mi- se- re-|re me-|i, mi- se-|re- * *|
 B,4 (E8 =D4) | E4 E4 F4 _D4 | D4 F4 E8- | E8 z4 D4- | D4 D4 C8 | E8 F4 F4- | F4 F4 E8 | %29
w: re me- *|i, mi- se- re-|re me- i;|_ qui-|* a u-|ni- cus, u-|* ni- cus,|
 z8 z4 D4- | D4 E4 F4 F4 | E4 F4 (D2 E2 F2 G2 | A6) G2 F8 | (E6 D2) C4 F4- | F4 E4 F8 | %35
w: qui-|* a u- ni-|cus et pau- * * *|* per sum|e- * go, pau-|* per sum|
 (_G8 F4 E4) | D4 B,4 E8 | D4 C4 B,8 | (C6 D2 E2 F2 E4-) | E4 =D4 E8 | C4 _D4 B,8 | z4 E8 E4 | %42
w: e- * *|go, et pau-|per sum e-|go, _ _ _ _|_ pau- per|sum e- go,|pau- per|
 F4 (E8 =D4) | E8 G8- | G4 G4 G4 E4 | F4 G4 A8 | G8 (F4 E4) | E8 z4 B,4 | E4 (E4 F4) E4 | %49
w: sum e- *|go. Tri-|* bu- la- ti-|o- nes cor-|dis me- *|i, cor-|dis me- * i,|
 (C4 B,2 A,2 B,8) | C4 C4 C4 C4 | (D4 C8) B,4 | (C8 B,8) | z8 z4 D4- | D4 D4 C4 A,4 | C6 C2 B,8 | %56
w: me- * * *|i mul- ti- pli-|ca- * tae|sunt: _|de|_ ne- ces- si-|ta- ti- bus,|
 z4 F8 F4 | D4 B,4 E8 | E4 C4 z4 _G4- | G4 _G4 F4 D4 | E6 E2 E4 _G4 | F4 (B,2 C2 D2 E2 F4-) | %62
w: de ne-|ces- si- ta-|ti- bus, de|_ ne- ces- si-|ta- ti- bus me-|is, de _ _ _ _|
 F2 E2 E8 =D4 | E4 B,4 E4 F4- | (F4 =D4) E8 | z4 A,4 _D8- | D4 C4 F8 | E6 E2 E4 (C2 D2) | %68
w: _ ne- ces- si-|ta- ti- bus me-|* * is|e- ru-|* e me|Do- mi- ne, e- *|
 (E2 F2) (G2 F2) (E2 =D2) E4- | E4 =D4 E4 B,4 | E4 F8 =D4 | E6 E2 C4 _D4 | F8 E4 A,4- | A,4 D8 C4 | %74
w: ru- * e _ me _ Do-|* mi- ne, e-|ru- e me|Do- mi- ne, e-|ru- e, e-|* ru- e|
 F8 F4 E4 | D4 F8 (E2 D2) | E16 |] %77
w: me Do- mi-|ne, Do- mi- *|ne.|
V:3
 z16 | z16 | z16 | z16 | z16 | E12 E4 | A12 A4 | F12 F4 | B12 A4 | G4 F4 E4 B4- | B2 A2 A8 G4 | %11
w: |||||Re- spi-|ce in|me et|mi- se-|re- re me- *||
 A4 A8 A4 | d12 d4 | B12 B4 | e12 _d4 | (c4 B2 A2 B4) e4- | (e2 d2 c2 B2 c4) c4- | c4 c4 f8- | %18
w: i. re- spi-|ce in|me et|mi- se-|re- * * * re|_ _ _ _ _ me-|* i, mi-|
 f4 e4 d4 c4 | (B4 c8 B2 A2 | B4) E4 (F4 G4) | A4 A8 A4 | G8 B8 | c4 c4 d4 A4- | A4 (B4 c8 | %25
w: * se- re- re|me- * * *|* i, me- *|i; qui- a|u- ni-|cus, qui- a u-|* ni- *|
 B8) (A6 G2 | F4) f4 e4 f4 | B8 d4 d4- | d4 d4 c8 | e8 d4 B4- | B4 B4 c4 d4- | d4 c4 f4 d4 | %32
w: * cus, _|_ qui- a u-|ni- cus ,qui-|* a u-|ni- cus, qui-|* a u- ni-|* cus, qui- a|
 e8 (d6 c2) | B8 A4 d4- | d4 B4 d4 c4- | c4 B6 A2 A4- | A4 G4 A8 | D8 E4 e4- | e4 d4 c4 B4 | %39
w: u- ni- *|cus, et pau-|* per sum e-||* go, e-|go, et pau-|* per sum e-|
 c4 A4 c4 B4- | B2 A2 A8 G4 | (B6 A2 G4) c4 | (B4 c8 B2 A2) | B8 e8- | e4 e4 e4 c4 | d4 e4 f8 | %46
w: go, et pau- *|* * * per,|sum _ _ e-||go. Tri-|* bu- la- ti-|o- nes cor-|
 e8 (d4 c4-) | (c4 B2 A2) B4 G4 | B4 c4 F4 B4- | B2 A2 A8 G4 | A4 E4 A4 A4 | (F4 A8 G2 F2) | %52
w: dis me- *|* * * i, cor-|dis me- i, me-||i mul- ti- pli-|ca- * * *|
 G4 (A8 G2 F2 | G4) B8 B4 | A4 F4 A6 A2 | E8 z4 B4- | B4 B4 A2 F2 A4- | A4 G4 A8 | z4 e8 e4 | %59
w: tae sunt: _ _|_ de ne-|ces- si- ta- ti-|bus, de|_ ne- ces- si- ta-|* ti- bus,|de ne-|
 d4 B4 d3 d A4 | c8 B8 | z4 d8 d4 | c4 A4 B6 B2 | E2 F2 G2 A2 B2 c2 d4- | d2 c2 B2 A2 B8 | %65
w: ces- si- ta- ti- bus|me- is,|de ne-|ces- si- ta- ti-|bus, _ _ _ _ _ _|_ _ _ _ me-|
 A4 F4 f8 | e8 A8 | z4 E8 A4- | A4 G4 c8 | B6 B2 G2 F2 G2 A2 | B2 c2 d6 c2 B2 A2 | B8 z4 A4- | %72
w: is e- ru-|e me,|e- ru-|* e me|Do- mi- ne, _ _ _|_ _ _ _ _ _|* e-|
 A4 d8 c4 | f8 e6 e2 | d4 A6 B2 c4 | A4 d8 (c2 B2) | c16 |] %77
w: * ru- e|me Do- mi-|ne, e- ru- e|me, Do- mi- *|ne.|
V:4
 z16 | z16 | z16 | z16 | z16 | z8 A,,8- | A,,4 A,,4 D,8- | D,4 D,4 B,,8- | B,,4 B,,4 E,8- | %9
w: |||||Re-|* spi- ce|_ in me|_ et mi-|
 E,4 D,4 C,4 B,,4 | C,6 D,2 E,8 | A,,16 | z16 | z16 | z16 | E,12 E,4 | A,12 A,4 | F,12 F,4 | %18
w: * se- re- re|me- * *|i,||||re- spi-|ce in|me et|
 B,12 A,4 | G,4 A,4 F,8 | E,4 (C,4 D,4 E,4) | A,,16 | z16 | z8 D,8- | D,4 D,4 C,8 | E,8 F,4 D,4 | %26
w: mi- se-|re- re me-|i, me- * *|i;||qui-|* a u-|ni- cus, qui-|
 (D,2 E,2 F,2 G,2 A,4) F,4 | E,8 D,8- | D,8 z8 | z8 _G,8- | G,4 _G,4 F,8 | (A,8 B,8 | A,8 D,8) | %33
w: a _ _ _ _ u-|ni- cus,|_|qui-|* a u-|ni- *||
 E,8 z4 D,4 | _G,8 F,8 | E,8 (D,4 C,4 | B,,8) A,,8 | z8 z4 E,4 | A,12 G,4 | F,4 (F,4 E,8 | %40
w: cus et|pau- per|sum e- *|* go,|et|pau- per|sum e- *|
 F,4 D,4) E,4 E,4- | E,4 E,4 E,4 C,4 | D,4 E,4 F,8 | E,16 | z16 | z16 | z16 | E,12 E,4 | %48
w: * * go. Tri-|* bu- la- ti-|o- nes cor-|dis,||||tri- bu-|
 E,4 C,4 D,4 E,4 | F,8 E,4 E,4 | A,,4 A,,4 A,,4 A,,4 | D,12 D,4 | (C,6 D,2 E,4) E,4- | %53
w: la- ti- o- nes|cor- dis me-|i mul- ti- pli-|ca- tae|sunt: _ _ de|
 E,4 E,4 D,4 B,,4 | D,6 D,2 A,,8 | z4 E,8 E,4 | D,4 B,,4 (D,6 C,2 | B,,4) B,,4 A,,4 A,4- | %58
w: _ ne- ces- si-|ta- ti- bus,|de ne-|ces- si- ta- *|* ti- bus, de|
 A,4 A,4 _G,4 E,4 | _G,6 G,2 (D,6 C,2) | (A,,2 B,,2 C,2 D,2 E,8) | B,,8 z8 | z8 B,,8 | E,12 D,4 | %64
w: _ ne- ces- si-|ta- ti- bus _|me- * * * *|is,|e-|ru- e|
 F,8 E,6 E,2 | A,,4 D,6 E,2 F,2 G,2 | A,6 G,2 F,4 D,4 | (E,8 A,,8) | z16 | B,,8 E,8- | %70
w: me Do- mi-|ne, Do- * * *|* * * mi-|ne, _||e- ru-|
 E,4 D,4 F,8 | E,6 E,2 A,,4 D,4- | D,2 E,2 F,2 G,2 A,6 G,2 | F,4 D,4 A,4 A,,4 | D,4 (F,6 E,2) C,4 | %75
w: * e me|Do- mi- ne, Do-||* mi- ne, e-|ru- e _ me|
 D,6 D,2 A,,8- | A,,16 |] %77
w: Do- mi- ne.|_|

